X:532141
T:Rambling Sailor
C:Mrs Marina Russell, Upwey coll. HED Hammond 
S:England
A:Dorset
N:Transcribed from HAM-05-042.gif C:Transcibed to abc by PJHeadford
M:C
L:1/4
Q:2/4=50
K:D
D|D>EFE|DD/ D/=cB|A>B A/G/ E&xxxE/D/|(DC)DD|
D>EFE|DD/ D/=cB|A>B A/G/ E&xxxE/D/|(DC)DF|AAdA| A/B/=cdd|=cBAB|=cBA/HF/ FE|D>F=FE|
DD/ D/=cB|AA/ B/ A/ G/E|(DC)D||
W:Transcribed from HAM-05-042.gif
W:[to the left of the title:] 814.[below title, on sticky label:] D782
W:[to the right of the label:] Mrs. Russell, Upwey
W:[leader line from bar 13 to text below tune:] Third flattened. (H.E.D.H.) 
W:[at end of tune, initialled:] FEP

